icons/core/user-add.svg

<svg width="32" height="32" viewBox="0 0 32 32" fill="none" xmlns="http://www.w3.org/2000/svg">
<path fill-rule="evenodd" clip-rule="evenodd" d="M6.99976 8.99994C6.99976 6.23851 9.23833 3.99994 11.9998 3.99994C14.7612 3.99994 16.9998 6.23851 16.9998 8.99994C16.9998 11.7614 14.7612 13.9999 11.9998 13.9999C9.23833 13.9999 6.99976 11.7614 6.99976 8.99994ZM11.9998 1.99994C8.13376 1.99994 4.99976 5.13395 4.99976 8.99994C4.99976 12.8659 8.13376 15.9999 11.9998 15.9999C15.8657 15.9999 18.9998 12.8659 18.9998 8.99994C18.9998 5.13395 15.8657 1.99994 11.9998 1.99994ZM7.99976 17.9999C4.68605 17.9999 1.99976 20.6862 1.99976 23.9999V29.9999H3.99976V23.9999C3.99976 21.7908 5.79062 19.9999 7.99976 19.9999H15.9998C18.2089 19.9999 19.9998 21.7908 19.9998 23.9999V29.9999H21.9998V23.9999C21.9998 20.6862 19.3135 17.9999 15.9998 17.9999H7.99976ZM26 14V10H28V14H32V16H28V20H26V16H22V14H26Z" fill="black"/>
</svg>

<svg width="32" height="32" viewBox="0 0 32 32" xmlns="http://www.w3.org/2000/svg">
    <path fill-rule="evenodd" d="M7 9a5 5 0 1110 0A5 5 0 017 9zm5-7a7 7 0 100 14 7 7 0 000-14zM8 18a6 6 0 00-6 6v6h2v-6a4 4 0 014-4h8a4 4 0 014 4v6h2v-6a6 6 0 00-6-6H8zm18-4v-4h2v4h4v2h-4v4h-2v-4h-4v-2h4z"/>
</svg>
